X:058 
T:Fair Wind (reel), The
B:CRE5.109 (CÃÂÃÂÃÂÃÂ³ir Ghaoithe)
F:file ID: cre.5/058fair_w
N:There's a version of this in CRE3 #81 (file ID cre.3/051fair_w)
L:1/8
M:4/4
%%Q:180
R:reel
K:G
G2FG G3A|BAGA BAAB|G2FG G3B|AB/A/ GE EDD2:|
BddB G3A|BddB BAA2|BddB G2GA|AB/A/ GE EDD2:|
E2 EE c3c|BddB A2BA|GEEE c3c|AB/A/ GE EDD2:|

%%%

